src/assets/selectIcons/strumento_16.svg

<svg xmlns="http://www.w3.org/2000/svg" viewBox="0 0 512 512" style="height: 512px; width: 512px;"><path d="M0 0h512v512H0z" fill="#000" fill-opacity="1"></path><g class="" transform="translate(0,0)" style=""><path d="M131.656 49.656L22.312 159l12.344 12.344 46.813-28.906 32.686-32.688-.062-.063L144 62l-12.344-12.344zm247.688 0L367 62l26.906 43.563 37.688 37.687 44.75 28.094L488.688 159 379.344 49.656zm4.906 72.688L371.094 135.5l20.687 20.688-32.81-8.594-10.97 11 21.03 21.03-33.342-8.75-10.782 10.814 21.375 21.375-33.874-8.907L87.97 418.626 66.405 472.03l53.313-21.655L416 154.095l-31.75-31.75zm-256.875.625l-31.75 31.75 10.656 10.655 21-21-8.718 33.28 10.813 10.814 21.344-21.345-8.876 33.813 10.625 10.625 21.686-21.688-9.03 34.344 45.56 45.56 31.75-31.75-115.06-115.06zm172.938 172.905l-31.75 31.75 122.75 122.75 53.375 21.563-21.657-53.313-122.717-122.75z" fill="#fff" fill-opacity="1"></path></g></svg>

<?xml version="1.0" encoding="UTF-8" standalone="no"?>
<!DOCTYPE svg PUBLIC "-//W3C//DTD SVG 1.1//EN" "http://www.w3.org/Graphics/SVG/1.1/DTD/svg11.dtd">
<svg width="100%" height="100%" viewBox="0 0 512 512" version="1.1" xmlns="http://www.w3.org/2000/svg" xmlns:xlink="http://www.w3.org/1999/xlink" xml:space="preserve" xmlns:serif="http://www.serif.com/" style="fill-rule:evenodd;clip-rule:evenodd;stroke-linejoin:round;stroke-miterlimit:2;">
    <rect x="0" y="0" width="512" height="512" style="fill-rule:nonzero;"/>
    <g>
        <path d="M131.656,49.656L22.312,159L34.656,171.344L81.469,142.438L114.155,109.75L114.093,109.687L144,62L131.656,49.656ZM379.344,49.656L367,62L393.906,105.563L431.594,143.25L476.344,171.344L488.688,159L379.344,49.656ZM384.25,122.344L371.094,135.5L391.781,156.188L358.971,147.594L348.001,158.594L369.031,179.624L335.689,170.874L324.907,181.688L346.282,203.063L312.408,194.156L87.97,418.626L66.405,472.03L119.718,450.375L416,154.095L384.25,122.345L384.25,122.344ZM127.375,122.969L95.625,154.719L106.281,165.374L127.281,144.374L118.563,177.654L129.376,188.468L150.72,167.123L141.844,200.936L152.469,211.561L174.155,189.873L165.125,224.217L210.685,269.777L242.435,238.027L127.375,122.967L127.375,122.969ZM300.313,295.874L268.563,327.624L391.313,450.374L444.688,471.937L423.031,418.624L300.314,295.874L300.313,295.874Z" style="fill:rgb(169,169,169);fill-rule:nonzero;"/>
    </g>
</svg>
